; generated by PrusaSlicer 2.5.0+linux-x64-GTK3 on 2023-01-20 at 15:23:53 UTC


;
;

;
;
; 

; external perimeters extrusion width = 0.45mm
; perimeters extrusion width = 0.45mm
; infill extrusion width = 0.45mm
; solid infill extrusion width = 0.45mm
; top infill extrusion width = 0.40mm
; first layer extrusion width = 0.42mm

; external perimeters extrusion width = 0.45mm
; perimeters extrusion width = 0.45mm
; infill extrusion width = 0.45mm
; solid infill extrusion width = 0.45mm
; top infill extrusion width = 0.40mm
; first layer extrusion width = 0.42mm

M73 P0 R189
M201 X2500 Y2500 Z400 E5000 ; sets maximum accelerations, mm/sec^2
M203 X180 Y180 Z12 E80 ; sets maximum feedrates, mm / sec
M204 P1250 R1250 T2500 ; sets acceleration (P, T) and retract acceleration (R), mm/sec^2
M205 X8.00 Y8.00 Z2.00 E10.00 ; sets the jerk limits, mm/sec
M205 S0 T0 ; sets the minimum extruding and travel feed rate, mm/sec
M107
;TYPE:Custom
M862.3 P "MINI" ; printer model check
G90 ; use absolute coordinates
M83 ; extruder relative mode
M104 S170 ; set extruder temp for bed leveling
M140 S60 ; set bed temp
M109 R170 ; wait for bed leveling temp
M190 S60 ; wait for bed temp
M204 T1250 ; set travel acceleration
G28 ; home all without mesh bed level
G29 ; mesh bed leveling 
M204 T2500 ; restore travel acceleration
M104 S215 ; set extruder temp
G92 E0
G1 Y-2 X179 F2400
G1 Z3 F720
M109 S215 ; wait for extruder temp

; intro line
M73 P0 R188
G1 X170 F1000
G1 Z0.2 F720
G1 X110 E8 F900
G1 X40 E10 F700
G92 E0

M221 S95 ; set flow
G21 ; set units to millimeters
G90 ; use absolute coordinates
M83 ; use relative distances for extrusion
M900 K0.2 ; Filament gcode LA 1.5
; ; Filament gcode LA 1.0
M107
;LAYER_CHANGE
;Z:0.2
;HEIGHT:0.2
;BEFORE_LAYER_CHANGE
G92 E0.0
;0.2


G1 E-3.2 F4200
G1 Z.2 F720
;AFTER_LAYER_CHANGE
;0.2
G1 Z.4
G1 X40.658 Y32.197 F9000
G1 Z.2 F720
G1 E3.2 F2400
M204 P800
;TYPE:Skirt/Brim
;WIDTH:0.42
G1 F1200
G1 X41.944 Y30.911 E.05704
G1 X43.109 Y30.428 E.03955
G1 X44.019 Y30.247 E.02908
G1 X135.019 Y30.247 E2.85324
G1 X135.929 Y30.428 E.02908
G1 X137.094 Y30.911 E.03955
G1 X138.38 Y32.197 E.05704
G1 X138.863 Y33.363 E.03955
G1 X139.044 Y34.272 E.02908
G1 X139.044 Y146.416 E3.51617
G1 X138.863 Y147.325 E.02908
G1 X138.38 Y148.491 E.03955
G1 X137.094 Y149.777 E.05704
G1 X135.929 Y150.26 E.03955
G1 X135.019 Y150.441 E.02908
G1 X44.019 Y150.441 E2.85324
G1 X43.109 Y150.26 E.02908
G1 X41.944 Y149.777 E.03955
G1 X40.658 Y148.491 E.05704
G1 X40.175 Y147.325 E.03955
G1 X39.994 Y146.416 E.02908
G1 X39.994 Y34.272 E3.51617
G1 X40.175 Y33.363 E.02908
G1 X40.635 Y32.253 E.03767
M204 P1000
; printing object case_bot.stl id:0 copy 0
G1 E-2.24 F4200
;WIPE_START
G1 F7200
G1 X41.784 Y31.075 E-.912
;WIPE_END
G1 E-.048 F4200
G1 Z.4 F720
G1 X134.828 Y83.691 F9000
G1 Z.2 F720
G1 E3.2 F2400
M204 P800
;TYPE:Perimeter
;WIDTH:0.419999
G1 F1200
G1 X135.48 Y83.704 E.02044
G1 X135.48 Y84.416 E.02232
G1 X135.299 Y84.853 E.01482
G1 X134.862 Y85.033 E.01482
G1 X44.176 Y85.033 E2.84342
G1 X43.739 Y84.853 E.01482
G1 X43.558 Y84.416 E.01482
G1 X43.558 Y34.429 E1.5673
G1 X43.739 Y33.992 E.01482
G1 X44.176 Y33.811 E.01482
G1 X134.862 Y33.811 E2.84342
G1 X135.299 Y33.992 E.01482
G1 X135.48 Y34.429 E.01482
G1 X135.48 Y47.141 E.39857
G1 X134.891 Y47.141 E.01846
G1 X134.524 Y47.206 E.01171
G1 X134.178 Y47.347 E.01171
G1 X133.868 Y47.556 E.01171
G1 X133.61 Y47.825 E.01171
G1 X133.412 Y48.142 E.01171
G1 X133.285 Y48.493 E.01171
G1 X133.232 Y48.911 E.01319
G1 X133.232 Y81.934 E1.03542
G1 X133.261 Y82.236 E.0095
G1 X133.364 Y82.595 E.01171
G1 X133.54 Y82.924 E.01171
G1 X133.781 Y83.21 E.01171
G1 X134.075 Y83.439 E.01171
G1 X134.411 Y83.602 E.01171
G1 X134.769 Y83.679 E.01149
M204 P1000
G1 X134.499 Y83.227 F9000
M204 P800
;TYPE:External perimeter
G1 F1200
G1 X134.564 Y83.257 E.00226
G1 X134.89 Y83.327 E.01045
G1 X135.857 Y83.327 E.03031
G1 X135.857 Y84.491 E.03649
G1 X135.588 Y85.141 E.02207
G1 X134.937 Y85.41 E.02207
G1 X44.101 Y85.41 E2.84812
G1 X43.45 Y85.141 E.02207
G1 X43.181 Y84.491 E.02207
G1 X43.181 Y34.354 E1.572
G1 X43.45 Y33.704 E.02207
G1 X44.101 Y33.434 E.02207
G1 X134.937 Y33.434 E2.84812
G1 X135.588 Y33.704 E.02207
M73 P0 R187
G1 X135.857 Y34.354 E.02207
G1 X135.857 Y47.518 E.41274
G1 X134.891 Y47.518 E.03028
G1 X134.602 Y47.575 E.00924
G1 X134.331 Y47.691 E.00924
G1 X134.09 Y47.861 E.00924
G1 X133.89 Y48.078 E.00924
G1 X133.739 Y48.331 E.00924
G1 X133.644 Y48.61 E.00924
G1 X133.609 Y48.911 E.0095
G1 X133.609 Y81.934 E1.03542
G1 X133.636 Y82.196 E.00827
G1 X133.723 Y82.478 E.00924
G1 X133.867 Y82.735 E.00924
G1 X134.061 Y82.957 E.00924
G1 X134.297 Y83.134 E.00924
G1 X134.445 Y83.202 E.0051
M204 P1000
G1 X134.503 Y83.299 F9000
G1 E-2.24 F4200
;WIPE_START
G1 F7200
G1 X134.564 Y83.257 E-.07324
G1 X134.89 Y83.327 E-.18465
G1 X135.857 Y83.327 E-.53569
G1 X135.857 Y83.541 E-.11841
;WIPE_END
G1 E-.048 F4200
G1 Z.4 F720
G1 X46.571 Y35.612 F9000
G1 Z.2 F720
G1 E3.2 F2400
M204 P800
;TYPE:Perimeter
G1 F1200
G1 X46.699 Y35.479 E.00578
G1 X47 Y35.392 E.00984
G1 X50.678 Y35.392 E.1153
G1 X50.979 Y35.479 E.00984
G1 X51.168 Y35.675 E.00852
G1 X53.006 Y38.86 E.1153
G1 X53.082 Y39.121 E.00852
G1 X53.006 Y39.425 E.00984
G1 X51.168 Y42.61 E.1153
G1 X50.98 Y42.805 E.00848
G1 X50.732 Y42.89 E.00821
G1 X50.678 Y42.893 E.00172
G1 X47 Y42.893 E.1153
G1 X46.759 Y42.839 E.00775
G1 X46.626 Y42.751 E.005
G1 X46.51 Y42.61 E.00572
G1 X44.672 Y39.425 E.1153
G1 X44.596 Y39.142 E.00918
G1 X44.672 Y38.86 E.00918
G1 X46.53 Y35.655 E.11614
M204 P1000
G1 X46.837 Y35.863 F9000
M204 P800
;TYPE:External perimeter
G1 F1200
G1 X46.968 Y35.772 E.005
G1 X47 Y35.769 E.00103
G1 X50.678 Y35.769 E.1153
G1 X50.778 Y35.798 E.00328
G1 X50.841 Y35.863 E.00284
G1 X52.68 Y39.048 E.1153
G1 X52.691 Y39.212 E.00516
G1 X50.841 Y42.421 E.11615
G1 X50.712 Y42.512 E.00494
G1 X47 Y42.516 E.11639
G1 X46.876 Y42.468 E.00418
G1 X46.837 Y42.421 E.00191
G1 X44.998 Y39.237 E.1153
G1 X44.973 Y39.142 E.00306
G1 X44.998 Y39.048 E.00306
G1 X46.807 Y35.915 E.11342
M204 P1000
G1 X46.8 Y35.708 F9000
G1 E-2.24 F4200
;WIPE_START
G1 F7200
G1 X46.968 Y35.772 E-.11936
G1 X47 Y35.769 E-.01812
G1 X48.398 Y35.769 E-.77452
;WIPE_END
G1 E-.048 F4200
G1 Z.4 F720
G1 X51.068 Y76.131 F9000
G1 Z.2 F720
G1 E3.2 F2400
M204 P800
;TYPE:Perimeter
G1 F1200
G1 X51.168 Y76.235 E.00451
G1 X53.006 Y79.42 E.1153
G1 X53.08 Y79.654 E.00769
G1 X53.049 Y79.892 E.00754
G1 X53.006 Y79.985 E.00322
G1 X51.168 Y83.17 E.1153
G1 X50.979 Y83.366 E.00852
G1 X50.678 Y83.453 E.00984
G1 X47 Y83.453 E.1153
G1 X46.699 Y83.366 E.00984
G1 X46.51 Y83.17 E.00852
G1 X44.672 Y79.985 E.1153
G1 X44.596 Y79.702 E.00918
G1 X44.672 Y79.42 E.00918
G1 X46.51 Y76.235 E.1153
G1 X46.626 Y76.094 E.00572
G1 X46.888 Y75.963 E.00917
G1 X47 Y75.952 E.00355
G1 X50.678 Y75.952 E.1153
G1 X50.956 Y76.025 E.00903
G1 X51.024 Y76.09 E.00295
M204 P1000
G1 X50.824 Y76.399 F9000
M204 P800
;TYPE:External perimeter
G1 F1200
G1 X52.68 Y79.608 E.11622
G1 X52.694 Y79.766 E.00496
G1 X50.841 Y82.981 E.11637
G1 X50.71 Y83.073 E.005
G1 X50.678 Y83.076 E.00103
G1 X47 Y83.076 E.1153
G1 X46.9 Y83.047 E.00328
G1 X46.636 Y82.633 E.01538
G1 X44.998 Y79.797 E.10269
G1 X44.973 Y79.702 E.00306
G1 X44.998 Y79.608 E.00306
G1 X46.837 Y76.423 E.1153
G1 X46.963 Y76.333 E.00486
G1 X47 Y76.329 E.00118
G1 X50.678 Y76.329 E.1153
G1 X50.77 Y76.373 E.00322
M204 P1000
G1 X51.201 Y76.265 F9000
G1 E-2.24 F4200
;WIPE_START
G1 F7200
G1 X51.607 Y77.791 E-.912
;WIPE_END
G1 E-.048 F4200
G1 Z.4 F720
G1 X115.925 Y80.216 F9000
G1 Z.2 F720
G1 E3.2 F2400
M204 P800
;TYPE:Perimeter
G1 F1200
G1 X115.792 Y79.985 E.00837
G1 X115.716 Y79.724 E.00852
G1 X115.774 Y79.453 E.00868
G1 X117.63 Y76.235 E.1165
G1 X117.821 Y76.038 E.0086
G1 X118.095 Y75.953 E.009
G1 X121.798 Y75.952 E.11608
G1 X122.063 Y76.018 E.00858
G1 X122.249 Y76.177 E.00768
G1 X122.288 Y76.235 E.00216
G1 X124.126 Y79.42 E.1153
G1 X124.202 Y79.702 E.00918
G1 X124.126 Y79.985 E.00918
G1 X122.288 Y83.17 E.1153
G1 X122.099 Y83.366 E.00852
G1 X121.798 Y83.453 E.00984
G1 X118.12 Y83.453 E.1153
G1 X117.819 Y83.366 E.00984
G1 X117.63 Y83.17 E.00852
G1 X115.955 Y80.268 E.10505
M204 P1000
G1 X116.118 Y79.797 F9000
M204 P800
;TYPE:External perimeter
G1 F1200
G1 X116.118 Y79.608 E.00591
G1 X117.957 Y76.423 E.1153
G1 X118.088 Y76.332 E.005
G1 X118.12 Y76.329 E.00103
G1 X121.798 Y76.329 E.1153
G1 X121.934 Y76.387 E.00465
G1 X123.8 Y79.608 E.1167
G1 X123.815 Y79.763 E.00488
G1 X121.961 Y82.981 E.11646
G1 X121.83 Y83.073 E.005
G1 X121.798 Y83.076 E.00103
G1 X118.12 Y83.076 E.1153
G1 X118.02 Y83.047 E.00328
G1 X117.957 Y82.981 E.00284
G1 X116.148 Y79.849 E.11342
M204 P1000
G1 X115.941 Y79.733 F9000
G1 E-2.24 F4200
;WIPE_START
G1 F7200
G1 X116.118 Y79.608 E-.13431
G1 X116.82 Y78.393 E-.77769
;WIPE_END
G1 E-.048 F4200
G1 Z.4 F720
G1 X117.691 Y35.612 F9000
G1 Z.2 F720
G1 E3.2 F2400
M204 P800
;TYPE:Perimeter
G1 F1200
G1 X117.819 Y35.479 E.00578
G1 X118.12 Y35.392 E.00984
G1 X121.798 Y35.392 E.1153
G1 X122.099 Y35.479 E.00984
G1 X122.288 Y35.675 E.00852
G1 X124.126 Y38.86 E.1153
G1 X124.198 Y39.079 E.00724
G1 X124.155 Y39.367 E.00914
G1 X122.288 Y42.61 E.11733
G1 X122.102 Y42.804 E.00843
G1 X121.798 Y42.893 E.00992
G1 X118.12 Y42.893 E.1153
G1 X117.854 Y42.826 E.00861
G1 X117.643 Y42.631 E.00901
G1 X115.792 Y39.425 E.11607
G1 X115.716 Y39.121 E.00984
G1 X115.792 Y38.86 E.00852
G1 X117.65 Y35.655 E.11614
M204 P1000
G1 X117.957 Y35.863 F9000
M204 P800
;TYPE:External perimeter
G1 F1200
G1 X118.088 Y35.772 E.005
G1 X118.12 Y35.769 E.00103
G1 X121.798 Y35.769 E.1153
G1 X121.898 Y35.798 E.00328
G1 X121.961 Y35.863 E.00284
G1 X123.8 Y39.048 E.1153
G1 X123.817 Y39.197 E.00468
G1 X121.961 Y42.421 E.11666
G1 X121.838 Y42.511 E.00479
G1 X118.12 Y42.516 E.11655
G1 X117.974 Y42.446 E.0051
G1 X117.957 Y42.421 E.00092
G1 X116.118 Y39.237 E.1153
G1 X116.104 Y39.079 E.00496
G1 X117.927 Y35.915 E.11449
M204 P1000
G1 X117.919 Y35.709 F9000
G1 E-2.24 F4200
;WIPE_START
G1 F7200
G1 X118.088 Y35.772 E-.11936
G1 X118.12 Y35.769 E-.01812
G1 X119.518 Y35.769 E-.77452
;WIPE_END
G1 E-.048 F4200
G1 Z.4 F720
G1 X135.367 Y84.164 F9000
G1 Z.2 F720
G1 E3.2 F2400
M204 P800
;TYPE:Solid infill
;WIDTH:0.420748
G1 F1200
G1 X135.018 Y83.816 E.01548
M204 P1000
G1 E-2.24 F4200
;WIPE_START
G1 F7200
G1 X135.367 Y84.164 E-.27303
;WIPE_END
G1 E-.68697 F4200
G1 Z.4 F720
G1 X134.285 Y33.925 F9000
G1 Z.2 F720
G1 E3.2 F2400
M204 P800
G1 F1200
G1 X135.197 Y34.836 E.04051
G1 X135.197 Y35.371 E.01679
G1 X133.921 Y34.094 E.05671
G1 X133.387 Y34.094 E.01679
G1 X135.197 Y35.905 E.08045
G1 X135.197 Y36.439 E.01679
G1 X132.852 Y34.094 E.10419
G1 X132.318 Y34.094 E.01679
G1 X135.197 Y36.974 E.12793
G1 X135.197 Y37.508 E.01679
G1 X131.784 Y34.094 E.15167
G1 X131.249 Y34.094 E.01679
G1 X135.197 Y38.042 E.17541
G1 X135.197 Y38.577 E.01679
G1 X130.715 Y34.094 E.19915
G1 X130.181 Y34.094 E.01679
G1 X135.197 Y39.111 E.22289
G1 X135.197 Y39.645 E.01679
G1 X129.646 Y34.094 E.24663
G1 X129.112 Y34.094 E.01679
G1 X135.197 Y40.18 E.27037
G1 X135.197 Y40.714 E.01679
G1 X128.578 Y34.094 E.29411
G1 X128.043 Y34.094 E.01679
G1 X135.197 Y41.248 E.31785
G1 X135.197 Y41.783 E.01679
G1 X127.509 Y34.094 E.34159
G1 X126.975 Y34.094 E.01679
G1 X135.197 Y42.317 E.36533
G1 X135.197 Y42.851 E.01679
G1 X126.44 Y34.094 E.38907
G1 X125.906 Y34.094 E.01679
G1 X135.197 Y43.386 E.41281
G1 X135.197 Y43.92 E.01679
G1 X125.372 Y34.094 E.43655
G1 X124.837 Y34.094 E.01679
G1 X135.197 Y44.454 E.46029
G1 X135.197 Y44.988 E.01679
G1 X124.303 Y34.094 E.48403
G1 X123.769 Y34.094 E.01679
G1 X135.197 Y45.523 E.50777
G1 X135.197 Y46.057 E.01679
G1 X123.234 Y34.094 E.53151
G1 X122.7 Y34.094 E.01679
G1 X135.197 Y46.591 E.55525
G1 X135.197 Y46.858 E.00837
G1 X134.929 Y46.858 E.00841
G1 X122.166 Y34.094 E.56709
G1 X121.631 Y34.094 E.01679
G1 X134.466 Y46.929 E.57026
G1 X134.083 Y47.08 E.01294
G1 X121.097 Y34.094 E.57697
G1 X120.563 Y34.094 E.01679
G1 X121.578 Y35.109 E.0451
G1 X121.043 Y35.109 E.01679
G1 X120.028 Y34.094 E.0451
G1 X119.494 Y34.094 E.01679
G1 X120.509 Y35.109 E.0451
G1 X119.975 Y35.109 E.01679
G1 X118.96 Y34.094 E.0451
G1 X118.425 Y34.094 E.01679
G1 X119.44 Y35.109 E.0451
G1 X118.906 Y35.109 E.01679
G1 X117.891 Y34.094 E.0451
G1 X117.357 Y34.094 E.01679
G1 X118.372 Y35.109 E.0451
G1 X117.969 Y35.122 E.01267
G1 X117.883 Y35.155 E.00288
G1 X116.822 Y34.094 E.04713
G1 X116.288 Y34.094 E.01679
G1 X117.551 Y35.357 E.05612
G1 X117.391 Y35.524 E.00724
G1 X117.315 Y35.656 E.00479
G1 X115.754 Y34.094 E.06937
G1 X115.219 Y34.094 E.01679
G1 X117.119 Y35.994 E.08442
G1 X116.924 Y36.333 E.01229
G1 X114.685 Y34.094 E.09947
G1 X114.151 Y34.094 E.01679
G1 X116.728 Y36.672 E.11453
G1 X116.533 Y37.011 E.01229
G1 X113.616 Y34.094 E.12958
G1 X113.082 Y34.094 E.01679
G1 X116.337 Y37.349 E.14463
G1 X116.142 Y37.688 E.01229
G1 X112.548 Y34.094 E.15968
G1 X112.013 Y34.094 E.01679
G1 X115.946 Y38.027 E.17473
G1 X115.75 Y38.366 E.01229
G1 X111.479 Y34.094 E.18978
G1 X110.945 Y34.094 E.01679
G1 X115.555 Y38.704 E.20483
G1 X115.481 Y38.861 E.00543
G1 X115.434 Y39.118 E.00821
G1 X110.41 Y34.094 E.22319
G1 X109.876 Y34.094 E.01679
G1 X115.822 Y40.041 E.26419
G1 X116.551 Y41.304 E.04582
G1 X109.172 Y33.925 E.32785
M204 P1000
G1 E-2.24 F4200
;WIPE_START
G1 F7200
G1 X110.336 Y35.088 E-.912
;WIPE_END
G1 E-.048 F4200
G1 Z.4 F720
G1 X122.794 Y36.325 F9000
G1 Z.2 F720
G1 E3.2 F2400
M204 P800
G1 F1200
G1 X133.758 Y47.29 E.48716
G1 X133.582 Y47.433 E.00714
G1 X133.482 Y47.547 E.00478
G1 X123.987 Y38.053 E.42183
G1 X124.374 Y38.723 E.02429
G1 X124.448 Y38.892 E.00582
G1 X124.471 Y39.071 E.00566
G1 X133.256 Y47.856 E.39032
G1 X133.124 Y48.086 E.00834
G1 X133.082 Y48.216 E.00429
G1 X124.39 Y39.525 E.38617
G1 X124.198 Y39.867 E.01233
G1 X132.976 Y48.645 E.39003
G1 X132.949 Y48.906 E.00823
G1 X132.949 Y49.152 E.00775
G1 X124.002 Y40.205 E.39751
G1 X123.807 Y40.544 E.01229
G1 X132.949 Y49.687 E.4062
G1 X132.949 Y50.221 E.01679
G1 X123.611 Y40.883 E.4149
G1 X123.415 Y41.222 E.01229
G1 X132.949 Y50.756 E.42359
G1 X132.949 Y51.29 E.01679
G1 X123.22 Y41.56 E.43229
G1 X123.024 Y41.899 E.01229
G1 X132.949 Y51.824 E.44098
G1 X132.95 Y52.359 E.01679
G1 X122.829 Y42.238 E.44967
G1 X122.633 Y42.577 E.01229
G1 X132.95 Y52.893 E.45837
G1 X132.95 Y53.428 E.01679
G1 X122.417 Y42.895 E.46798
G1 X122.349 Y42.973 E.00324
G1 X122.182 Y43.084 E.00631
G1 X122.101 Y43.113 E.00272
G1 X132.95 Y53.962 E.48201
G1 X132.95 Y54.496 E.01679
G1 X121.629 Y43.176 E.50298
G1 X121.095 Y43.176 E.01679
M73 P1 R187
G1 X132.95 Y55.031 E.52673
G1 X132.95 Y55.565 E.01679
G1 X120.56 Y43.176 E.55047
G1 X120.026 Y43.176 E.01679
G1 X132.95 Y56.1 E.57421
G1 X132.95 Y56.634 E.01679
G1 X119.492 Y43.176 E.59796
G1 X118.957 Y43.176 E.01679
G1 X132.95 Y57.168 E.6217
G1 X132.95 Y57.703 E.01679
G1 X118.253 Y43.006 E.65298
M204 P1000
G1 E-2.24 F4200
;WIPE_START
G1 F7200
G1 X119.417 Y44.17 E-.912
;WIPE_END
G1 E-.048 F4200
G1 Z.4 F720
G1 X133.12 Y58.407 F9000
G1 Z.2 F720
G1 E3.2 F2400
M204 P800
G1 F1200
G1 X108.807 Y34.094 E1.0802
G1 X108.273 Y34.094 E.01679
G1 X132.95 Y58.772 E1.09641
G1 X132.95 Y59.306 E.01679
G1 X107.739 Y34.094 E1.12015
G1 X107.204 Y34.094 E.01679
M73 P1 R186
G1 X132.95 Y59.84 E1.14389
G1 X132.951 Y60.375 E.01679
G1 X106.67 Y34.094 E1.16763
G1 X106.136 Y34.094 E.01679
G1 X132.951 Y60.909 E1.19138
G1 X132.951 Y61.444 E.01679
G1 X105.601 Y34.094 E1.21512
G1 X105.067 Y34.094 E.01679
G1 X132.951 Y61.978 E1.23886
G1 X132.951 Y62.512 E.01679
G1 X104.533 Y34.094 E1.26261
G1 X103.998 Y34.094 E.01679
G1 X132.951 Y63.047 E1.28635
G1 X132.951 Y63.581 E.01679
G1 X103.464 Y34.094 E1.31009
G1 X102.93 Y34.094 E.01679
G1 X132.951 Y64.116 E1.33384
G1 X132.951 Y64.65 E.01679
G1 X102.395 Y34.094 E1.35758
G1 X101.861 Y34.094 E.01679
G1 X132.951 Y65.184 E1.38132
G1 X132.951 Y65.719 E.01679
G1 X101.327 Y34.094 E1.40507
G1 X100.792 Y34.094 E.01679
G1 X132.951 Y66.253 E1.42881
G1 X132.951 Y66.788 E.01679
G1 X100.258 Y34.094 E1.45255
G1 X99.724 Y34.094 E.01679
G1 X132.951 Y67.322 E1.47629
G1 X132.951 Y67.856 E.01679
G1 X99.189 Y34.094 E1.50004
G1 X98.655 Y34.094 E.01679
G1 X132.952 Y68.391 E1.52378
G1 X132.952 Y68.925 E.01679
G1 X98.121 Y34.094 E1.54752
