; generated by PrusaSlicer 2.1.1 on 2022-06-09 at 22:44:20 UTC


;
;

;
;
; 

; external perimeters extrusion width = 0.45mm
; perimeters extrusion width = 0.45mm
; infill extrusion width = 0.45mm
; solid infill extrusion width = 0.45mm
; top infill extrusion width = 0.40mm
; first layer extrusion width = 0.42mm

M73 P0 R145
M201 X1250 Y1250 Z400 E5000 ; sets maximum accelerations, mm/sec^2
M203 X180 Y180 Z12 E80 ; sets maximum feedrates, mm/sec
M204 P1250 R1250 T1250 ; sets acceleration (P, T) and retract acceleration (R), mm/sec^2
M205 X8.00 Y8.00 Z2.00 E10.00 ; sets the jerk limits, mm/sec
M205 S0 T0 ; sets the minimum extruding and travel feed rate, mm/sec
M107
G90 ; use absolute coordinates
M83 ; extruder relative mode
M104 S170 ; set extruder temp for bed leveling
M140 S60 ; set bed temp
M109 R170 ; wait for bed leveling temp
M190 S60 ; wait for bed temp
G28 ; home all without mesh bed level
G29 ; mesh bed leveling 
M104 S215 ; set extruder temp
G92 E0.0
G1 Y-2.0 X179 F2400
G1 Z3 F720
M109 S215 ; wait for extruder temp

; intro line
G1 X170 F1000
G1 Z0.2 F720
G1 X110.0 E8.0 F900
M73 P0 R145
G1 X40.0 E10.0 F700
G92 E0.0

M221 S95 ; set flow
G21 ; set units to millimeters
G90 ; use absolute coordinates
M83 ; use relative distances for extrusion
M900 K0.2 ; Filament gcode LA 1.5
; ; Filament gcode LA 1.0
;BEFORE_LAYER_CHANGE
G92 E0.0
;0.2


G1 Z0.200 F9000.000
;AFTER_LAYER_CHANGE
;0.2
G1 E-3.20000 F4200.00000
G1 Z0.400 F9000.000
G1 X41.562 Y31.357
G1 Z0.200
G1 E3.20000 F2400.00000
M204 S800
G1 F1200
G1 X41.925 Y30.993 E0.01612
G1 X42.366 Y30.722 E0.01623
G1 X43.803 Y30.131 E0.04871
G1 X44.470 Y30.017 E0.02123
G1 X135.504 Y30.017 E2.85429
G1 X136.334 Y30.182 E0.02653
G1 X137.705 Y30.757 E0.04663
G1 X138.255 Y31.152 E0.02123
G1 X138.733 Y31.855 E0.02664
G1 X139.298 Y33.231 E0.04665
G1 X139.411 Y33.873 E0.02044
G1 X139.412 Y146.090 E3.51848
G1 X139.268 Y146.851 E0.02428
G1 X138.705 Y148.208 E0.04606
G1 X138.438 Y148.643 E0.01601
G1 X138.070 Y149.012 E0.01635
G1 X137.627 Y149.281 E0.01623
G1 X136.187 Y149.873 E0.04883
G1 X135.508 Y149.983 E0.02157
G1 X44.478 Y149.983 E2.85418
G1 X43.721 Y149.840 E0.02417
G1 X42.364 Y149.277 E0.04606
G1 X41.928 Y149.010 E0.01601
G1 X41.560 Y148.641 E0.01635
G1 X41.291 Y148.199 E0.01623
G1 X40.699 Y146.758 E0.04883
G1 X40.588 Y146.080 E0.02157
G1 X40.588 Y33.910 E3.51699
G1 X40.732 Y33.149 E0.02428
G1 X41.295 Y31.792 E0.04606
G1 X41.530 Y31.408 E0.01413
M204 S1250
G1 E-2.24000 F4200.00000
G1 F7200
G1 X41.925 Y30.993 E-0.31735
G1 X42.366 Y30.722 E-0.28693
G1 X42.880 Y30.511 E-0.30771
G1 E-0.04800 F4200.00000
G1 Z0.400 F9000.000
G1 X48.745 Y75.729
G1 Z0.200
G1 E3.20000 F2400.00000
M204 S800
G1 F1200
G1 X49.320 Y75.684 E0.01808
G1 X49.895 Y75.729 E0.01808
G1 X50.456 Y75.863 E0.01808
G1 X50.988 Y76.084 E0.01808
G1 X51.480 Y76.385 E0.01808
G1 X51.918 Y76.760 E0.01808
G1 X52.293 Y77.198 E0.01808
G1 X52.594 Y77.690 E0.01808
G1 X52.815 Y78.223 E0.01808
G1 X52.949 Y78.784 E0.01808
G1 X52.995 Y79.358 E0.01808
G1 X52.949 Y79.933 E0.01808
G1 X52.815 Y80.494 E0.01808
G1 X52.594 Y81.027 E0.01808
G1 X52.293 Y81.518 E0.01808
G1 X51.918 Y81.957 E0.01808
G1 X51.668 Y82.170 E0.01032
G1 X51.480 Y82.331 E0.00776
G1 X50.988 Y82.633 E0.01808
G1 X50.456 Y82.853 E0.01808
G1 X49.895 Y82.988 E0.01808
G1 X49.320 Y83.033 E0.01808
G1 X48.745 Y82.988 E0.01808
G1 X48.504 Y82.930 E0.00776
G1 X48.184 Y82.853 E0.01032
G1 X47.652 Y82.633 E0.01808
G1 X47.160 Y82.331 E0.01808
G1 X46.722 Y81.957 E0.01808
G1 X46.347 Y81.518 E0.01808
G1 X46.062 Y81.053 E0.01712
G1 X45.826 Y80.496 E0.01895
G1 X45.691 Y79.933 E0.01816
G1 X45.645 Y79.358 E0.01808
G1 X45.671 Y79.030 E0.01032
G1 X45.691 Y78.784 E0.00776
G1 X45.825 Y78.223 E0.01808
G1 X46.046 Y77.690 E0.01808
G1 X46.347 Y77.198 E0.01808
G1 X46.722 Y76.760 E0.01808
G1 X47.160 Y76.385 E0.01808
G1 X47.652 Y76.084 E0.01808
G1 X48.184 Y75.863 E0.01808
G1 X48.687 Y75.743 E0.01620
M204 S1250
G1 X48.775 Y76.110 F9000.000
M204 S800
G1 F1200
G1 X49.320 Y76.062 E0.01716
G1 X49.836 Y76.102 E0.01622
G1 X50.339 Y76.223 E0.01622
G1 X50.817 Y76.421 E0.01622
G1 X51.258 Y76.691 E0.01622
G1 X51.651 Y77.027 E0.01622
G1 X51.987 Y77.421 E0.01622
G1 X52.257 Y77.862 E0.01622
G1 X52.455 Y78.340 E0.01622
G1 X52.576 Y78.843 E0.01622
G1 X52.616 Y79.358 E0.01622
G1 X52.576 Y79.874 E0.01622
G1 X52.455 Y80.377 E0.01622
G1 X52.257 Y80.855 E0.01622
G1 X51.987 Y81.296 E0.01622
G1 X51.651 Y81.689 E0.01622
G1 X51.423 Y81.884 E0.00939
G1 X51.258 Y82.025 E0.00683
G1 X50.817 Y82.296 E0.01622
G1 X50.339 Y82.493 E0.01622
G1 X49.836 Y82.614 E0.01622
G1 X49.320 Y82.655 E0.01622
G1 X48.804 Y82.614 E0.01622
G1 X48.592 Y82.563 E0.00683
G1 X48.301 Y82.493 E0.00939
G1 X47.823 Y82.296 E0.01622
G1 X47.382 Y82.025 E0.01622
G1 X46.989 Y81.689 E0.01622
G1 X46.653 Y81.296 E0.01622
G1 X46.398 Y80.880 E0.01531
G1 X46.185 Y80.378 E0.01709
G1 X46.064 Y79.874 E0.01625
G1 X46.024 Y79.358 E0.01622
G1 X46.047 Y79.060 E0.00939
G1 X46.064 Y78.843 E0.00683
G1 X46.185 Y78.340 E0.01622
G1 X46.383 Y77.862 E0.01622
G1 X46.653 Y77.421 E0.01622
G1 X46.989 Y77.027 E0.01622
G1 X47.382 Y76.691 E0.01622
G1 X47.823 Y76.421 E0.01622
G1 X48.301 Y76.223 E0.01622
G1 X48.716 Y76.124 E0.01339
M204 S1250
G1 X48.916 Y75.735 F9000.000
G1 E-2.24000 F4200.00000
G1 F7200
G1 X49.320 Y76.062 E-0.33619
G1 X49.836 Y76.102 E-0.28666
G1 X50.339 Y76.223 E-0.28666
G1 X50.343 Y76.225 E-0.00250
G1 E-0.04800 F4200.00000
G1 Z0.400 F9000.000
G1 X49.320 Y42.473
G1 Z0.200
G1 E3.20000 F2400.00000
M204 S800
G1 F1200
G1 X48.745 Y42.428 E0.01808
G1 X48.184 Y42.293 E0.01808
G1 X47.652 Y42.073 E0.01808
G1 X47.160 Y41.771 E0.01808
G1 X46.722 Y41.397 E0.01808
G1 X46.347 Y40.958 E0.01808
G1 X46.062 Y40.493 E0.01712
G1 X45.826 Y39.936 E0.01895
G1 X45.691 Y39.373 E0.01816
G1 X45.645 Y38.798 E0.01808
G1 X45.691 Y38.224 E0.01808
G1 X45.825 Y37.663 E0.01808
G1 X46.046 Y37.130 E0.01808
G1 X46.347 Y36.638 E0.01808
G1 X46.722 Y36.200 E0.01808
G1 X47.160 Y35.825 E0.01808
G1 X47.652 Y35.524 E0.01808
G1 X48.184 Y35.304 E0.01808
G1 X48.745 Y35.169 E0.01808
G1 X49.320 Y35.124 E0.01808
G1 X49.895 Y35.169 E0.01808
G1 X50.456 Y35.303 E0.01808
G1 X50.988 Y35.524 E0.01808
G1 X51.480 Y35.825 E0.01808
G1 X51.918 Y36.200 E0.01808
G1 X52.293 Y36.638 E0.01808
G1 X52.594 Y37.130 E0.01808
G1 X52.815 Y37.663 E0.01808
G1 X52.949 Y38.224 E0.01808
G1 X52.995 Y38.798 E0.01808
G1 X52.949 Y39.373 E0.01808
G1 X52.815 Y39.934 E0.01808
G1 X52.594 Y40.467 E0.01808
G1 X52.293 Y40.958 E0.01808
G1 X51.918 Y41.397 E0.01808
G1 X51.480 Y41.771 E0.01808
G1 X50.988 Y42.073 E0.01808
G1 X50.456 Y42.293 E0.01808
G1 X49.895 Y42.428 E0.01808
G1 X49.380 Y42.468 E0.01620
M204 S1250
G1 X49.350 Y42.092 F9000.000
M204 S800
G1 F1200
G1 X48.804 Y42.054 E0.01716
G1 X48.301 Y41.933 E0.01622
G1 X47.823 Y41.736 E0.01622
G1 X47.382 Y41.465 E0.01622
G1 X46.989 Y41.129 E0.01622
G1 X46.653 Y40.736 E0.01622
G1 X46.398 Y40.320 E0.01531
G1 X46.185 Y39.818 E0.01709
G1 X46.064 Y39.314 E0.01625
G1 X46.024 Y38.798 E0.01622
G1 X46.064 Y38.283 E0.01622
G1 X46.185 Y37.780 E0.01622
G1 X46.383 Y37.302 E0.01622
G1 X46.653 Y36.861 E0.01622
G1 X46.989 Y36.467 E0.01622
G1 X47.382 Y36.131 E0.01622
G1 X47.823 Y35.861 E0.01622
G1 X48.301 Y35.663 E0.01622
G1 X48.804 Y35.542 E0.01622
G1 X49.320 Y35.502 E0.01622
G1 X49.836 Y35.542 E0.01622
G1 X50.339 Y35.663 E0.01622
G1 X50.817 Y35.861 E0.01622
G1 X51.258 Y36.131 E0.01622
G1 X51.651 Y36.467 E0.01622
G1 X51.987 Y36.861 E0.01622
G1 X52.257 Y37.302 E0.01622
G1 X52.455 Y37.780 E0.01622
G1 X52.576 Y38.283 E0.01622
G1 X52.616 Y38.798 E0.01622
G1 X52.576 Y39.314 E0.01622
G1 X52.455 Y39.817 E0.01622
G1 X52.257 Y40.295 E0.01622
G1 X51.987 Y40.736 E0.01622
G1 X51.651 Y41.129 E0.01622
G1 X51.258 Y41.465 E0.01622
G1 X50.817 Y41.736 E0.01622
G1 X50.339 Y41.933 E0.01622
G1 X49.836 Y42.054 E0.01622
G1 X49.410 Y42.088 E0.01339
M204 S1250
G1 X49.153 Y42.440 F9000.000
G1 E-2.24000 F4200.00000
G1 F7200
G1 X48.804 Y42.054 E-0.33619
G1 X48.301 Y41.933 E-0.28666
G1 X47.823 Y41.736 E-0.28666
G1 X47.820 Y41.733 E-0.00250
G1 E-0.04800 F4200.00000
G1 Z0.400 F9000.000
G1 X111.033 Y39.528
G1 Z0.200
G1 E3.20000 F2400.00000
M204 S800
G1 F1200
G1 X110.913 Y38.772 E0.02398
G1 X110.913 Y38.485 E0.00902
G1 X111.033 Y37.729 E0.02398
G1 X111.401 Y37.006 E0.02545
G1 X111.975 Y36.432 E0.02545
G1 X112.698 Y36.063 E0.02545
G1 X113.490 Y35.938 E0.02512
G1 X114.301 Y36.063 E0.02572
G1 X115.025 Y36.432 E0.02549
G1 X115.599 Y37.006 E0.02545
G1 X115.967 Y37.729 E0.02545
G1 X116.087 Y38.485 E0.02398
G1 X116.087 Y38.772 E0.00902
G1 X115.967 Y39.528 E0.02398
G1 X115.599 Y40.251 E0.02545
G1 X115.025 Y40.825 E0.02545
G1 X114.311 Y41.189 E0.02512
G1 X113.501 Y41.321 E0.02572
G1 X112.698 Y41.193 E0.02549
G1 X111.975 Y40.825 E0.02545
G1 X111.401 Y40.251 E0.02545
G1 X111.060 Y39.581 E0.02357
M204 S1250
G1 X111.396 Y39.410 F9000.000
M204 S800
G1 F1200
G1 X111.290 Y38.742 E0.02119
G1 X111.290 Y38.514 E0.00716
G1 X111.396 Y37.847 E0.02118
G1 X111.710 Y37.230 E0.02171
G1 X112.199 Y36.741 E0.02171
G1 X112.816 Y36.426 E0.02170
G1 X113.491 Y36.320 E0.02141
G1 X114.183 Y36.426 E0.02198
G1 X114.801 Y36.741 E0.02172
G1 X115.290 Y37.230 E0.02171
G1 X115.604 Y37.847 E0.02171
G1 X115.710 Y38.514 E0.02118
G1 X115.710 Y38.742 E0.00716
G1 X115.604 Y39.410 E0.02118
G1 X115.290 Y40.026 E0.02171
G1 X114.801 Y40.516 E0.02171
G1 X114.192 Y40.826 E0.02140
G1 X113.500 Y40.939 E0.02198
G1 X112.816 Y40.830 E0.02172
G1 X112.199 Y40.516 E0.02171
G1 X111.710 Y40.027 E0.02171
G1 X111.423 Y39.463 E0.01982
M204 S1250
G1 X111.005 Y39.327 F9000.000
G1 E-2.24000 F4200.00000
G1 F7200
G1 X111.290 Y38.742 E-0.40625
G1 X111.290 Y38.514 E-0.12649
G1 X111.396 Y37.847 E-0.37435
G1 X111.400 Y37.839 E-0.00491
G1 E-0.04800 F4200.00000
G1 Z0.400 F9000.000
G1 X116.765 Y38.798
G1 Z0.200
G1 E3.20000 F2400.00000
M204 S800
G1 F1200
G1 X116.811 Y38.224 E0.01808
G1 X116.945 Y37.663 E0.01808
G1 X117.166 Y37.130 E0.01808
G1 X117.467 Y36.638 E0.01808
G1 X117.842 Y36.200 E0.01808
G1 X118.280 Y35.825 E0.01808
G1 X118.772 Y35.524 E0.01808
G1 X119.304 Y35.303 E0.01808
G1 X119.865 Y35.169 E0.01808
G1 X120.440 Y35.124 E0.01808
G1 X121.015 Y35.169 E0.01808
G1 X121.576 Y35.303 E0.01808
G1 X122.108 Y35.524 E0.01808
G1 X122.600 Y35.825 E0.01808
G1 X123.038 Y36.200 E0.01808
G1 X123.413 Y36.638 E0.01808
G1 X123.714 Y37.130 E0.01808
G1 X123.935 Y37.663 E0.01808
G1 X124.069 Y38.224 E0.01808
G1 X124.115 Y38.798 E0.01808
G1 X124.069 Y39.373 E0.01808
G1 X124.012 Y39.614 E0.00776
G1 X123.935 Y39.934 E0.01032
G1 X123.714 Y40.467 E0.01808
G1 X123.413 Y40.958 E0.01808
G1 X123.038 Y41.397 E0.01808
G1 X122.623 Y41.751 E0.01712
G1 X122.111 Y42.072 E0.01895
G1 X121.576 Y42.293 E0.01816
G1 X121.015 Y42.428 E0.01808
G1 X120.440 Y42.473 E0.01808
G1 X119.896 Y42.430 E0.01712
G1 X119.307 Y42.294 E0.01895
G1 X118.772 Y42.073 E0.01816
G1 X118.280 Y41.771 E0.01808
G1 X117.842 Y41.397 E0.01808
G1 X117.467 Y40.958 E0.01808
G1 X117.166 Y40.467 E0.01808
G1 X116.945 Y39.934 E0.01808
G1 X116.811 Y39.373 E0.01808
G1 X116.770 Y38.858 E0.01620
M204 S1250
G1 X117.146 Y38.829 F9000.000
M204 S800
G1 F1200
G1 X117.184 Y38.283 E0.01716
G1 X117.305 Y37.780 E0.01622
G1 X117.503 Y37.302 E0.01622
G1 X117.773 Y36.861 E0.01622
G1 X118.109 Y36.467 E0.01622
G1 X118.502 Y36.131 E0.01622
G1 X118.943 Y35.861 E0.01622
G1 X119.421 Y35.663 E0.01622
G1 X119.924 Y35.542 E0.01622
G1 X120.440 Y35.502 E0.01622
G1 X120.956 Y35.542 E0.01622
G1 X121.459 Y35.663 E0.01622
G1 X121.937 Y35.861 E0.01622
G1 X122.378 Y36.131 E0.01622
G1 X122.771 Y36.467 E0.01622
G1 X123.107 Y36.861 E0.01622
G1 X123.377 Y37.302 E0.01622
G1 X123.575 Y37.780 E0.01622
G1 X123.696 Y38.283 E0.01622
G1 X123.736 Y38.798 E0.01622
G1 X123.696 Y39.314 E0.01622
G1 X123.645 Y39.526 E0.00683
G1 X123.575 Y39.817 E0.00939
G1 X123.377 Y40.295 E0.01622
G1 X123.107 Y40.736 E0.01622
G1 X122.771 Y41.129 E0.01622
G1 X122.400 Y41.446 E0.01531
G1 X121.937 Y41.735 E0.01709
G1 X121.459 Y41.933 E0.01625
G1 X120.956 Y42.054 E0.01622
G1 X120.440 Y42.095 E0.01622
G1 X119.953 Y42.057 E0.01531
G1 X119.422 Y41.934 E0.01709
G1 X118.943 Y41.736 E0.01625
G1 X118.502 Y41.465 E0.01622
G1 X118.109 Y41.129 E0.01622
G1 X117.773 Y40.736 E0.01622
G1 X117.503 Y40.295 E0.01622
G1 X117.305 Y39.817 E0.01622
G1 X117.184 Y39.314 E0.01622
G1 X117.151 Y38.888 E0.01339
M204 S1250
G1 X116.798 Y38.631 F9000.000
G1 E-2.24000 F4200.00000
G1 F7200
G1 X117.184 Y38.283 E-0.33619
G1 X117.305 Y37.780 E-0.28666
G1 X117.503 Y37.302 E-0.28666
G1 X117.505 Y37.298 E-0.00250
G1 E-0.04800 F4200.00000
G1 Z0.400 F9000.000
G1 X119.865 Y75.729
G1 Z0.200
G1 E3.20000 F2400.00000
M204 S800
G1 F1200
G1 X120.440 Y75.684 E0.01808
G1 X121.015 Y75.729 E0.01808
G1 X121.576 Y75.863 E0.01808
G1 X122.108 Y76.084 E0.01808
G1 X122.600 Y76.385 E0.01808
G1 X123.038 Y76.760 E0.01808
G1 X123.413 Y77.198 E0.01808
G1 X123.585 Y77.479 E0.01032
G1 X123.714 Y77.690 E0.00776
G1 X123.935 Y78.223 E0.01808
G1 X124.069 Y78.784 E0.01808
G1 X124.115 Y79.358 E0.01808
G1 X124.069 Y79.933 E0.01808
G1 X124.012 Y80.174 E0.00776
G1 X123.935 Y80.494 E0.01032
G1 X123.714 Y81.027 E0.01808
G1 X123.413 Y81.518 E0.01808
G1 X123.038 Y81.957 E0.01808
G1 X122.623 Y82.311 E0.01712
G1 X122.111 Y82.632 E0.01895
G1 X121.576 Y82.853 E0.01816
G1 X121.015 Y82.988 E0.01808
G1 X120.440 Y83.033 E0.01808
G1 X119.865 Y82.988 E0.01808
G1 X119.624 Y82.930 E0.00776
G1 X119.304 Y82.853 E0.01032
G1 X118.772 Y82.633 E0.01808
G1 X118.280 Y82.331 E0.01808
G1 X117.842 Y81.957 E0.01808
G1 X117.467 Y81.518 E0.01808
G1 X117.166 Y81.027 E0.01808
G1 X116.945 Y80.494 E0.01808
G1 X116.811 Y79.933 E0.01808
G1 X116.765 Y79.358 E0.01808
G1 X116.791 Y79.030 E0.01032
G1 X116.811 Y78.784 E0.00776
G1 X116.945 Y78.223 E0.01808
G1 X117.166 Y77.690 E0.01808
G1 X117.467 Y77.198 E0.01808
G1 X117.842 Y76.760 E0.01808
G1 X118.280 Y76.385 E0.01808
G1 X118.772 Y76.084 E0.01808
G1 X119.304 Y75.863 E0.01808
G1 X119.807 Y75.743 E0.01620
M204 S1250
G1 X119.895 Y76.110 F9000.000
M204 S800
G1 F1200
G1 X120.440 Y76.062 E0.01716
G1 X120.956 Y76.102 E0.01622
G1 X121.459 Y76.223 E0.01622
G1 X121.937 Y76.421 E0.01622
G1 X122.378 Y76.691 E0.01622
G1 X122.771 Y77.027 E0.01622
G1 X123.107 Y77.421 E0.01622
G1 X123.263 Y77.676 E0.00939
G1 X123.377 Y77.862 E0.00683
G1 X123.575 Y78.340 E0.01622
G1 X123.696 Y78.843 E0.01622
G1 X123.736 Y79.358 E0.01622
G1 X123.696 Y79.874 E0.01622
G1 X123.645 Y80.086 E0.00683
G1 X123.575 Y80.377 E0.00939
G1 X123.377 Y80.855 E0.01622
G1 X123.107 Y81.296 E0.01622
G1 X122.771 Y81.689 E0.01622
G1 X122.400 Y82.006 E0.01531
G1 X121.937 Y82.295 E0.01709
G1 X121.459 Y82.493 E0.01625
G1 X120.956 Y82.614 E0.01622
G1 X120.440 Y82.655 E0.01622
G1 X119.924 Y82.614 E0.01622
G1 X119.712 Y82.563 E0.00683
G1 X119.421 Y82.493 E0.00939
G1 X118.943 Y82.296 E0.01622
G1 X118.502 Y82.025 E0.01622
G1 X118.109 Y81.689 E0.01622
G1 X117.773 Y81.296 E0.01622
G1 X117.503 Y80.855 E0.01622
G1 X117.305 Y80.377 E0.01622
G1 X117.184 Y79.874 E0.01622
G1 X117.144 Y79.358 E0.01622
G1 X117.167 Y79.060 E0.00939
G1 X117.184 Y78.843 E0.00683
G1 X117.305 Y78.340 E0.01622
G1 X117.503 Y77.862 E0.01622
G1 X117.773 Y77.421 E0.01622
G1 X118.109 Y77.027 E0.01622
G1 X118.502 Y76.691 E0.01622
G1 X118.943 Y76.421 E0.01622
G1 X119.421 Y76.223 E0.01622
G1 X119.836 Y76.124 E0.01339
M204 S1250
G1 X120.036 Y75.735 F9000.000
G1 E-2.24000 F4200.00000
G1 F7200
G1 X120.440 Y76.062 E-0.33619
G1 X120.956 Y76.102 E-0.28665
G1 X121.459 Y76.223 E-0.28666
G1 X121.463 Y76.225 E-0.00250
G1 E-0.04800 F4200.00000
G1 Z0.400 F9000.000
G1 X111.000 Y78.535
G1 Z0.200
G1 E3.20000 F2400.00000
M204 S800
G1 F1200
G1 X111.033 Y78.329 E0.00653
G1 X111.401 Y77.606 E0.02545
G1 X111.975 Y77.032 E0.02545
G1 X112.698 Y76.663 E0.02545
G1 X113.490 Y76.538 E0.02512
G1 X114.301 Y76.663 E0.02572
G1 X115.026 Y77.032 E0.02553
G1 X115.604 Y77.615 E0.02572
G1 X115.967 Y78.329 E0.02512
G1 X116.087 Y79.085 E0.02398
G1 X116.087 Y79.372 E0.00902
G1 X115.967 Y80.128 E0.02398
G1 X115.599 Y80.851 E0.02545
G1 X115.025 Y81.425 E0.02545
G1 X114.311 Y81.789 E0.02512
G1 X113.501 Y81.921 E0.02572
G1 X112.698 Y81.793 E0.02549
G1 X111.975 Y81.425 E0.02545
G1 X111.401 Y80.851 E0.02545
G1 X111.033 Y80.128 E0.02545
G1 X111.000 Y79.922 E0.00653
